X: 26
T: Po qian ge
%%abc-version 2.0
%%abcx-abcm2ps-target-version 5.9.1 (29 Sep 2008)
%%abc-creator hum2abc beta
%%abcx-conversion-date 2013/10/02 07:44:27
%%abc-edited-by Helmut Schaffrath
%%humdrum-veritas 3878323382
%%humdrum-veritas-data 4181377321
%%continueall 1
%%barnumbers 0
L: 1/16
M: 2/4
K: G
D2 D2 [I:setbarnb 1]| 
D2> F2 D2 F G | 
A2> B2 A d B2 | 
A d c2 B2 A2- | 
A4D2 D2 | 
D2> F2 D2 F G | 
A2> B2 A d c d | 
B2 A2 G2 E B | 
A8- | 
A8- | 
A8 | 
z4D2 D2 | 
D2> F2 D2 F G | 
A2> d2 d c B2 | 
A d c d B2 A2 | 
G2 =F2 E2 D2 | 
C4z2 C D | 
E2> A2 G A G =F | 
E2 D2 C2 A, E | 
D8- | 
D8- | 
D8 |]  



